src/Widgets/DataFormHiddenFieldWidget/thumbnail.svg

<svg viewBox="0 0 150 100" fill="none" xmlns="http://www.w3.org/2000/svg">
<g id="datafrom-hidden">
<path id="Rectangle 1" d="M16 15C16 12.7909 17.7909 11 20 11H131C132.657 11 134 12.3431 134 14V86C134 87.6569 132.657 89 131 89H19C17.3431 89 16 87.6569 16 86V15Z" stroke="#AAAAAA" stroke-width="2" stroke-linecap="round" stroke-dasharray="5 5"/>
<g id="Badge">
<g clip-path="url(#clip0_10_25)">
<rect x="23" y="18" width="67" height="13" rx="6.5" fill="#FF9F00"/>
<path id="DATA FORM" d="M28.7 28.5V21.3H31.03C31.0867 21.3 31.2033 21.3017 31.38 21.305C31.5567 21.3083 31.7267 21.32 31.89 21.34C32.47 21.41 32.9617 21.6117 33.365 21.945C33.7683 22.2783 34.075 22.7017 34.285 23.215C34.495 23.7283 34.6 24.29 34.6 24.9C34.6 25.51 34.495 26.0717 34.285 26.585C34.075 27.0983 33.7683 27.5217 33.365 27.855C32.9617 28.1883 32.47 28.39 31.89 28.46C31.7267 28.48 31.5567 28.4917 31.38 28.495C31.2033 28.4983 31.0867 28.5 31.03 28.5H28.7ZM30.08 27.22H31.03C31.12 27.22 31.2417 27.2183 31.395 27.215C31.5483 27.2083 31.6867 27.1933 31.81 27.17C32.1233 27.1067 32.3783 26.96 32.575 26.73C32.775 26.5 32.9217 26.2233 33.015 25.9C33.1117 25.5767 33.16 25.2433 33.16 24.9C33.16 24.54 33.11 24.1983 33.01 23.875C32.9133 23.5517 32.765 23.2783 32.565 23.055C32.365 22.8317 32.1133 22.69 31.81 22.63C31.6867 22.6033 31.5483 22.5883 31.395 22.585C31.2417 22.5817 31.12 22.58 31.03 22.58H30.08V27.22ZM35.1043 28.5L37.3043 21.3H39.3343L41.5343 28.5H40.1343L38.1743 22.15H38.4343L36.5043 28.5H35.1043ZM36.4243 27V25.73H40.2243V27H36.4243ZM43.5048 28.5V22.57H41.2348V21.3H47.1348V22.57H44.8648V28.5H43.5048ZM47.243 28.5L49.443 21.3H51.473L53.673 28.5H52.273L50.313 22.15H50.573L48.643 28.5H47.243ZM48.563 27V25.73H52.363V27H48.563ZM56.5711 28.5V21.3H60.9711V22.66H57.9311V24.22H60.3711V25.58H57.9311V28.5H56.5711ZM64.9638 28.65C64.2438 28.65 63.6222 28.4933 63.0988 28.18C62.5788 27.8667 62.1772 27.4283 61.8938 26.865C61.6138 26.3017 61.4738 25.6467 61.4738 24.9C61.4738 24.1533 61.6138 23.4983 61.8938 22.935C62.1772 22.3717 62.5788 21.9333 63.0988 21.62C63.6222 21.3067 64.2438 21.15 64.9638 21.15C65.6838 21.15 66.3038 21.3067 66.8238 21.62C67.3472 21.9333 67.7488 22.3717 68.0288 22.935C68.3122 23.4983 68.4538 24.1533 68.4538 24.9C68.4538 25.6467 68.3122 26.3017 68.0288 26.865C67.7488 27.4283 67.3472 27.8667 66.8238 28.18C66.3038 28.4933 65.6838 28.65 64.9638 28.65ZM64.9638 27.37C65.4205 27.3767 65.8005 27.2783 66.1038 27.075C66.4072 26.8717 66.6338 26.5833 66.7838 26.21C66.9372 25.8367 67.0138 25.4 67.0138 24.9C67.0138 24.4 66.9372 23.9667 66.7838 23.6C66.6338 23.2333 66.4072 22.9483 66.1038 22.745C65.8005 22.5417 65.4205 22.4367 64.9638 22.43C64.5072 22.4233 64.1272 22.5217 63.8238 22.725C63.5205 22.9283 63.2922 23.2167 63.1388 23.59C62.9888 23.9633 62.9138 24.4 62.9138 24.9C62.9138 25.4 62.9888 25.8333 63.1388 26.2C63.2922 26.5667 63.5205 26.8517 63.8238 27.055C64.1272 27.2583 64.5072 27.3633 64.9638 27.37ZM69.452 28.5V21.3H72.492C72.562 21.3 72.6553 21.3033 72.772 21.31C72.892 21.3133 72.9986 21.3233 73.092 21.34C73.522 21.4067 73.8736 21.5483 74.147 21.765C74.4236 21.9817 74.627 22.255 74.757 22.585C74.887 22.9117 74.952 23.2767 74.952 23.68C74.952 24.2833 74.802 24.8 74.502 25.23C74.202 25.6567 73.732 25.92 73.092 26.02L72.492 26.06H70.812V28.5H69.452ZM73.512 28.5L72.092 25.57L73.492 25.3L75.052 28.5H73.512ZM70.812 24.79H72.432C72.502 24.79 72.5786 24.7867 72.662 24.78C72.7453 24.7733 72.822 24.76 72.892 24.74C73.0753 24.69 73.217 24.6067 73.317 24.49C73.417 24.37 73.4853 24.2383 73.522 24.095C73.562 23.9483 73.582 23.81 73.582 23.68C73.582 23.55 73.562 23.4133 73.522 23.27C73.4853 23.1233 73.417 22.9917 73.317 22.875C73.217 22.755 73.0753 22.67 72.892 22.62C72.822 22.6 72.7453 22.5867 72.662 22.58C72.5786 22.5733 72.502 22.57 72.432 22.57H70.812V24.79ZM76.1512 28.5V21.3H77.3712L79.7512 26.08L82.1312 21.3H83.3512V28.5H82.0812V24.2L79.9912 28.5H79.5112L77.4212 24.2V28.5H76.1512Z" fill="white"/>
</g>
</g>
<g id="Ebene_1" clip-path="url(#clip1_10_25)">
<g id="Group" opacity="0.25">
<path id="Vector" d="M124.37 54H26.43C24.5357 54 23 55.5357 23 57.43V79.31C23 81.2043 24.5357 82.74 26.43 82.74H124.37C126.264 82.74 127.8 81.2043 127.8 79.31V57.43C127.8 55.5357 126.264 54 124.37 54Z" fill="#AAAAAA" fill-opacity="0.75"/>
</g>
<g id="Group_2" opacity="0.75">
<path id="Vector_2" d="M124.36 56.29C124.99 56.29 125.5 56.8 125.5 57.43V79.3C125.5 79.93 124.99 80.44 124.36 80.44H26.43C25.8 80.44 25.29 79.93 25.29 79.3V57.43C25.29 56.8 25.8 56.29 26.43 56.29H124.36ZM124.36 54H26.43C24.54 54 23 55.54 23 57.43V79.3C23 81.2 24.54 82.74 26.43 82.74H124.36C126.26 82.74 127.79 81.2 127.79 79.31V57.43C127.79 55.53 126.25 54 124.36 54Z" fill="#AAAAAA"/>
</g>
<path id="Vector_3" d="M81.71 76.1C81.49 76.1 81.28 76.01 81.12 75.84L68.5 61.96C68.21 61.64 68.23 61.13 68.55 60.84C68.87 60.55 69.38 60.57 69.67 60.89L82.29 74.77C82.58 75.09 82.56 75.6 82.24 75.89C82.09 76.03 81.9 76.1 81.71 76.1Z" fill="#AAAAAA"/>
<path id="Vector_4" d="M75.4 72.32C75.34 72.32 75.27 72.32 75.21 72.32C74.7 72.3 74.2 72.17 73.74 71.96C73.26 71.74 72.83 71.43 72.48 71.03C72.12 70.64 71.85 70.18 71.68 69.68C71.51 69.2 71.44 68.69 71.46 68.18C71.48 67.67 71.61 67.17 71.82 66.71C72.04 66.23 72.35 65.8 72.75 65.45C73.07 65.16 73.58 65.18 73.87 65.5C74.16 65.82 74.14 66.33 73.82 66.62C73.35 67.04 73.08 67.62 73.05 68.26C73.02 68.89 73.24 69.49 73.66 69.96C74.08 70.43 74.66 70.7 75.3 70.73C75.93 70.76 76.53 70.54 77 70.12C77.32 69.83 77.83 69.85 78.12 70.17C78.41 70.49 78.39 71 78.07 71.29C77.68 71.65 77.22 71.92 76.72 72.09C76.3 72.24 75.86 72.31 75.41 72.31L75.4 72.32Z" fill="#AAAAAA"/>
<path id="Vector_5" d="M75.47 74.84C75.47 74.84 75.42 74.84 75.39 74.84C73.83 74.84 72.36 74.52 71.01 73.88C69.93 73.37 68.94 72.66 68.05 71.77C66.54 70.26 65.86 68.76 65.84 68.69C65.75 68.48 65.75 68.25 65.84 68.05C65.86 68.02 66.23 67.19 67.02 66.16C67.48 65.56 67.99 65.01 68.54 64.52C69.23 63.9 69.99 63.39 70.78 62.99C71.17 62.79 71.65 62.95 71.85 63.34C72.05 63.73 71.89 64.21 71.5 64.41C70.84 64.75 70.2 65.18 69.62 65.69C69.15 66.11 68.71 66.58 68.31 67.1C67.9 67.63 67.62 68.09 67.46 68.39C67.72 68.86 68.3 69.79 69.22 70.71C69.98 71.46 70.82 72.06 71.73 72.48C72.86 73.01 74.09 73.28 75.4 73.28C76.07 73.28 76.75 73.21 77.4 73.06C78.06 72.91 78.69 72.68 79.29 72.37C79.68 72.17 80.16 72.33 80.36 72.72C80.56 73.11 80.4 73.59 80.01 73.79C79.3 74.15 78.54 74.42 77.76 74.6C77.01 74.78 76.24 74.86 75.47 74.86V74.84Z" fill="#AAAAAA"/>
<path id="Vector_6" d="M81.76 72.4C81.54 72.4 81.33 72.31 81.17 72.14C80.88 71.81 80.91 71.31 81.23 71.02C81.68 70.62 82.34 69.94 82.96 69.01C83.13 68.76 83.26 68.54 83.35 68.37C83.09 67.9 82.51 66.97 81.59 66.05C80.83 65.3 79.99 64.7 79.08 64.28C77.95 63.75 76.72 63.48 75.41 63.48C75.41 63.48 75.4 63.48 75.39 63.48C74.89 63.48 74.39 63.52 73.9 63.6C73.47 63.67 73.06 63.38 72.99 62.95C72.92 62.52 73.21 62.11 73.64 62.04C74.22 61.94 74.81 61.9 75.4 61.9C76.96 61.9 78.43 62.22 79.78 62.86C80.86 63.37 81.85 64.08 82.74 64.97C84.25 66.48 84.93 67.98 84.95 68.05C85.04 68.26 85.04 68.49 84.95 68.69C84.92 68.77 84.1 70.57 82.28 72.2C82.13 72.34 81.94 72.4 81.75 72.4H81.76Z" fill="#AAAAAA"/>
<path id="Vector_7" d="M78.54 68.87C78.14 68.87 77.79 68.56 77.75 68.15C77.7 67.64 77.49 67.16 77.15 66.78C76.8 66.4 76.35 66.15 75.85 66.05C75.42 65.97 75.14 65.55 75.22 65.12C75.3 64.69 75.72 64.41 76.15 64.49C76.57 64.57 76.98 64.72 77.35 64.93C77.71 65.14 78.04 65.4 78.33 65.71C78.61 66.02 78.84 66.37 79.01 66.76C79.19 67.15 79.29 67.57 79.34 68C79.38 68.44 79.06 68.82 78.63 68.86C78.6 68.86 78.58 68.86 78.55 68.86L78.54 68.87Z" fill="#AAAAAA"/>
</g>
</g>
<defs>
<clipPath id="clip0_10_25">
<rect x="23" y="18" width="67" height="13" rx="6.5" fill="white"/>
</clipPath>
<clipPath id="clip1_10_25">
<rect width="104.8" height="28.74" fill="white" transform="translate(23 54)"/>
</clipPath>
</defs>
</svg>

<svg xmlns="http://www.w3.org/2000/svg" fill="none" viewBox="0 0 150 100"><path stroke="#AAA" stroke-dasharray="5 5" stroke-linecap="round" stroke-width="2" d="M16 15a4 4 0 0 1 4-4h111a3 3 0 0 1 3 3v72a3 3 0 0 1-3 3H19a3 3 0 0 1-3-3z"/><g clip-path="url(#a)"><rect width="67" height="13" x="23" y="18" fill="#FF9F00" rx="6.5"/><path fill="#fff" d="M28.7 28.5v-7.2h2.33l.35.005q.266.005.51.035.87.105 1.475.605t.92 1.27.315 1.685-.315 1.685-.92 1.27-1.475.605q-.244.03-.51.035l-.35.005zm1.38-1.28h.95q.135 0 .365-.005a3 3 0 0 0 .415-.045 1.32 1.32 0 0 0 .765-.44q.3-.345.44-.83a3.5 3.5 0 0 0 .145-1q0-.54-.15-1.025a2.1 2.1 0 0 0-.445-.82 1.33 1.33 0 0 0-.755-.425 2 2 0 0 0-.415-.045l-.365-.005h-.95zm5.024 1.28 2.2-7.2h2.03l2.2 7.2h-1.4l-1.96-6.35h.26l-1.93 6.35zm1.32-1.5v-1.27h3.8V27zm7.08 1.5v-5.93h-2.27V21.3h5.9v1.27h-2.27v5.93zm3.739 0 2.2-7.2h2.03l2.2 7.2h-1.4l-1.96-6.35h.26l-1.93 6.35zm1.32-1.5v-1.27h3.8V27zm8.008 1.5v-7.2h4.4v1.36h-3.04v1.56h2.44v1.36h-2.44v2.92zm8.393.15q-1.08 0-1.865-.47a3.15 3.15 0 0 1-1.205-1.315q-.42-.844-.42-1.965t.42-1.965a3.15 3.15 0 0 1 1.205-1.315q.785-.47 1.865-.47c1.08 0 1.34.157 1.86.47a3.1 3.1 0 0 1 1.205 1.315q.425.845.425 1.965t-.425 1.965a3.1 3.1 0 0 1-1.205 1.315q-.78.47-1.86.47m0-1.28q.686.01 1.14-.295a1.83 1.83 0 0 0 .68-.865q.23-.56.23-1.31c0-.75-.077-.933-.23-1.3a1.84 1.84 0 0 0-.68-.855q-.454-.304-1.14-.315-.686-.01-1.14.295a1.86 1.86 0 0 0-.685.865q-.225.56-.225 1.31c0 .75.075.933.225 1.3q.23.55.685.855.454.305 1.14.315m4.488 1.13v-7.2h3.04q.105 0 .28.01.18.005.32.03.645.1 1.055.425.415.325.61.82.195.49.195 1.095 0 .905-.45 1.55-.45.64-1.41.79l-.6.04h-1.68v2.44zm4.06 0-1.42-2.93 1.4-.27 1.56 3.2zm-2.7-3.71h1.62q.105 0 .23-.01t.23-.04a.83.83 0 0 0 .425-.25q.15-.18.205-.395.06-.22.06-.415c0-.195-.02-.267-.06-.41a.96.96 0 0 0-.205-.395.8.8 0 0 0-.425-.255 1.2 1.2 0 0 0-.23-.04 3 3 0 0 0-.23-.01h-1.62zm5.34 3.71v-7.2h1.22l2.38 4.78 2.38-4.78h1.22v7.2h-1.27v-4.3l-2.09 4.3h-.48l-2.09-4.3v4.3z"/></g><g fill="#AAA" clip-path="url(#b)"><path fill-opacity=".75" d="M124.37 54H26.43A3.43 3.43 0 0 0 23 57.43v21.88a3.43 3.43 0 0 0 3.43 3.43h97.94a3.43 3.43 0 0 0 3.43-3.43V57.43a3.43 3.43 0 0 0-3.43-3.43" opacity=".25"/><path d="M124.36 56.29c.63 0 1.14.51 1.14 1.14V79.3c0 .63-.51 1.14-1.14 1.14H26.43c-.63 0-1.14-.51-1.14-1.14V57.43c0-.63.51-1.14 1.14-1.14zm0-2.29H26.43C24.54 54 23 55.54 23 57.43V79.3c0 1.9 1.54 3.44 3.43 3.44h97.93c1.9 0 3.43-1.54 3.43-3.43V57.43c0-1.9-1.54-3.43-3.43-3.43" opacity=".75"/><path d="M81.71 76.1c-.22 0-.43-.09-.59-.26L68.5 61.96a.8.8 0 0 1 .05-1.12.8.8 0 0 1 1.12.05l12.62 13.88a.8.8 0 0 1-.05 1.12c-.15.14-.34.21-.53.21"/><path d="M75.4 72.32h-.19c-.51-.02-1.01-.15-1.47-.36-.48-.22-.91-.53-1.26-.93a3.8 3.8 0 0 1-.8-1.35 4 4 0 0 1-.22-1.5c.02-.51.15-1.01.36-1.47.22-.48.53-.91.93-1.26a.8.8 0 0 1 1.12.05.8.8 0 0 1-.05 1.12c-.47.42-.74 1-.77 1.64-.03.63.19 1.23.61 1.7s1 .74 1.64.77c.63.03 1.23-.19 1.7-.61a.8.8 0 0 1 1.12.05.8.8 0 0 1-.05 1.12c-.39.36-.85.63-1.35.8-.42.15-.86.22-1.31.22z"/><path d="M75.47 74.84h-.08c-1.56 0-3.03-.32-4.38-.96a10.6 10.6 0 0 1-2.96-2.11c-1.51-1.51-2.19-3.01-2.21-3.08a.8.8 0 0 1 0-.64c.02-.03.39-.86 1.18-1.89.46-.6.97-1.15 1.52-1.64.69-.62 1.45-1.13 2.24-1.53.39-.2.87-.04 1.07.35s.04.87-.35 1.07c-.66.34-1.3.77-1.88 1.28-.47.42-.91.89-1.31 1.41-.41.53-.69.99-.85 1.29.26.47.84 1.4 1.76 2.32.76.75 1.6 1.35 2.51 1.77 1.13.53 2.36.8 3.67.8.67 0 1.35-.07 2-.22a8 8 0 0 0 1.89-.69c.39-.2.87-.04 1.07.35s.04.87-.35 1.07c-.71.36-1.47.63-2.25.81-.75.18-1.52.26-2.29.26zm6.29-2.44c-.22 0-.43-.09-.59-.26a.8.8 0 0 1 .06-1.12 10.6 10.6 0 0 0 2.12-2.65c-.26-.47-.84-1.4-1.76-2.32-.76-.75-1.6-1.35-2.51-1.77-1.13-.53-2.36-.8-3.67-.8h-.02c-.5 0-1 .04-1.49.12a.79.79 0 0 1-.91-.65c-.07-.43.22-.84.65-.91.58-.1 1.17-.14 1.76-.14 1.56 0 3.03.32 4.38.96 1.08.51 2.07 1.22 2.96 2.11 1.51 1.51 2.19 3.01 2.21 3.08.09.21.09.44 0 .64-.03.08-.85 1.88-2.67 3.51-.15.14-.34.2-.53.2z"/><path d="M78.54 68.87a.8.8 0 0 1-.79-.72c-.05-.51-.26-.99-.6-1.37-.35-.38-.8-.63-1.3-.73a.796.796 0 0 1-.63-.93c.08-.43.5-.71.93-.63.42.08.83.23 1.2.44.36.21.69.47.98.78A4.06 4.06 0 0 1 79.34 68c.04.44-.28.82-.71.86h-.08z"/></g><defs><clipPath id="a"><rect width="67" height="13" x="23" y="18" fill="#fff" rx="6.5"/></clipPath><clipPath id="b"><path fill="#fff" d="M23 54h104.8v28.74H23z"/></clipPath></defs></svg>
